X: 41258
T: Tsizik Polkka
R: polka
M: 2/4
K: Dmixolydian
|:FB BF|GF ED|CE EG|F/G/F/E/ DE|
FF BF|GF ED|CE EG|F/G/F/E/ D2:|
|:F2 FE/F/|GF ED|CE EG|F/G/F/E/ DE|
DF FE/F/|GF ED|CE EG|F/G/F/E/ D2:|
|:BG BG/B/|ed B2|BG BG/B/|cA AG/A/|
BG BG/B/|ed B2|BG B>A|GF E2:|
|:g>f eB|d/e/d/c/ BG|EF GB|AG/F/ GE|
g>f eB|d>c BG|EF GB|A/G/F/G/ E2:|

